Obsidian/actions/22s/transform-rotate.svg

<svg height="22" viewBox="0 0 22 22" width="22" xmlns="http://www.w3.org/2000/svg"><path d="m1 1v9h6v-5h2c1.108 0 2 .89199 2 2v2h-3v2h-2v4h9v-6h-3v-2c0-1.662-1.338-3-3-3h-2v-3z" fill="#bebebe" transform="translate(3 3)"/></svg>

<svg xmlns="http://www.w3.org/2000/svg" width="22" height="22" viewBox="0 0 22 22">
 <defs>
  <style id="current-color-scheme" type="text/css">
   .ColorScheme-Text { color:#bebebe; } .ColorScheme-Highlight { color:#4285f4; }
  </style>
 </defs>
 <path style="fill:currentColor" class="ColorScheme-Text" d="M 1 1 L 1 10 L 7 10 L 7 5 L 9 5 C 10.108 5 11 5.89199 11 7 L 11 9 L 8 9 L 8 11 L 6 11 L 6 15 L 15 15 L 15 9 L 12 9 L 12 7 C 12 5.338 10.662 4 9 4 L 7 4 L 7 1 L 1 1 z" transform="translate(3 3)"/>
</svg>
